SVG_Azure_All/Snowflake.svg

<?xml version="1.0" encoding="UTF-8" standalone="no"?>
<!-- Generated by Microsoft Visio, SVG Export Snowflake.svg Page-1 -->

<svg
   xmlns:dc="http://purl.org/dc/elements/1.1/"
   xmlns:cc="http://creativecommons.org/ns#"
   xmlns:rdf="http://www.w3.org/1999/02/22-rdf-syntax-ns#"
   xmlns:svg="http://www.w3.org/2000/svg"
   xmlns="http://www.w3.org/2000/svg"
   xmlns:sodipodi="http://sodipodi.sourceforge.net/DTD/sodipodi-0.dtd"
   xmlns:inkscape="http://www.inkscape.org/namespaces/inkscape"
   width="0.77433544in"
   height="0.74723524in"
   viewBox="0 0 55.75215 53.80073"
   xml:space="preserve"
   class="st2"
   version="1.1"
   id="svg16"
   sodipodi:docname="Snowflake.svg"
   style="font-size:12px;overflow:visible;color-interpolation-filters:sRGB;fill:none;fill-rule:evenodd;stroke-linecap:square;stroke-miterlimit:3"
   inkscape:version="0.92.5 (2060ec1f9f, 2020-04-08)"><metadata
   id="metadata22"><rdf:RDF><cc:Work
       rdf:about=""><dc:format>image/svg+xml</dc:format><dc:type
         rdf:resource="http://purl.org/dc/dcmitype/StillImage" /></cc:Work></rdf:RDF></metadata><defs
   id="defs20" /><sodipodi:namedview
   pagecolor="#ffffff"
   bordercolor="#666666"
   borderopacity="1"
   objecttolerance="10"
   gridtolerance="10"
   guidetolerance="10"
   inkscape:pageopacity="0"
   inkscape:pageshadow="2"
   inkscape:window-width="640"
   inkscape:window-height="480"
   id="namedview18"
   showgrid="false"
   inkscape:zoom="1.8979166"
   inkscape:cx="37.169785"
   inkscape:cy="16.779823"
   inkscape:window-x="0"
   inkscape:window-y="0"
   inkscape:window-maximized="0"
   inkscape:current-layer="svg16" />
	<style
   type="text/css"
   id="style2">
	<![CDATA[
		.st1 {fill:#21bef2;stroke:none;stroke-linecap:butt;stroke-width:0.75}
		.st2 {fill:none;fill-rule:evenodd;font-size:12px;overflow:visible;stroke-linecap:square;stroke-miterlimit:3}
	]]>
	</style>

	<g
   id="g14"
   transform="translate(-6.138412,-5.41401)">
		<title
   id="title4">Page-1</title>
		<g
   id="group1474-1"
   transform="translate(5.66929,-34.0157)">
			<title
   id="title6">Snowflake</title>
			<g
   id="shape1475-2">
				<title
   id="title8">Sheet.1475</title>
				<path
   d="M 8.99,66.33 2.09,62.31 C 0.51,61.4 0,59.42 0.94,57.89 1.89,56.36 3.93,55.86 5.51,56.78 l 11.66,6.78 c 2.16,1.26 2.16,4.29 0,5.54 L 5.51,75.88 C 3.93,76.8 1.89,76.3 0.94,74.78 0,73.25 0.51,71.26 2.09,70.35 Z m 38.71,0 6.91,4.02 c 1.57,0.91 2.08,2.9 1.14,4.43 -0.95,1.52 -2.99,2.02 -4.57,1.1 L 39.52,69.1 c -2.15,-1.25 -2.15,-4.28 0,-5.54 l 11.66,-6.78 c 1.58,-0.92 3.62,-0.42 4.57,1.11 0.94,1.53 0.43,3.51 -1.14,4.42 z m -9.88,-15.94 7.05,-3.77 c 1.61,-0.87 3.64,-0.3 4.54,1.25 0.9,1.56 0.32,3.52 -1.29,4.38 l -11.91,6.38 c -2.2,1.18 -4.91,-0.34 -4.96,-2.77 L 31.01,42.7 c -0.03,-1.78 1.43,-3.24 3.28,-3.27 1.84,-0.03 3.36,1.39 3.39,3.17 z m -18.95,0 0.14,-7.79 c 0.04,-1.78 1.55,-3.2 3.4,-3.17 1.84,0.03 3.3,1.49 3.27,3.27 l -0.24,13.16 c -0.05,2.43 -2.76,3.95 -4.96,2.77 L 8.57,52.25 C 6.96,51.39 6.39,49.43 7.28,47.87 c 0.9,-1.55 2.93,-2.12 4.54,-1.25 z m 18.95,31.88 -0.14,7.79 c -0.03,1.78 -1.55,3.2 -3.39,3.17 -1.85,-0.02 -3.31,-1.49 -3.28,-3.26 L 31.25,76.8 c 0.05,-2.43 2.76,-3.94 4.96,-2.77 l 11.91,6.38 c 1.61,0.86 2.19,2.82 1.29,4.38 -0.9,1.55 -2.93,2.12 -4.54,1.26 z m -18.95,0 -7.05,3.78 C 10.21,86.91 8.18,86.34 7.28,84.79 6.39,83.23 6.96,81.27 8.57,80.41 l 11.91,-6.38 c 2.2,-1.17 4.91,0.34 4.96,2.77 l 0.24,13.17 c 0.03,1.77 -1.43,3.24 -3.27,3.26 -1.85,0.03 -3.36,-1.39 -3.4,-3.17 z m 3.1,-16.85 5.6,-5.25 h 2.61 l 5.33,5.25 v 2.6 l -5.33,5.24 h -2.61 l -5.6,-5.24 z m 4.55,0.75 c -0.31,0.3 -0.31,0.79 0,1.09 l 1.66,1.61 c 0.31,0.3 0.82,0.3 1.13,0 l 1.66,-1.61 c 0.31,-0.3 0.31,-0.79 0,-1.09 l -1.66,-1.61 c -0.31,-0.3 -0.82,-0.3 -1.13,0 z"
   class="st1"
   id="path10"
   inkscape:connector-curvature="0"
   style="fill:#21bef2;stroke:none;stroke-width:0.75;stroke-linecap:butt" />
			</g>
		</g>
	</g>
</svg>

<?xml version="1.0" encoding="UTF-8" standalone="no"?>
<!DOCTYPE svg PUBLIC "-//W3C//DTD SVG 1.1//EN" "http://www.w3.org/Graphics/SVG/1.1/DTD/svg11.dtd">
<!-- Generated by Microsoft Visio, SVG Export Snowflake.svg Page-1 -->
<svg xmlns="http://www.w3.org/2000/svg" xmlns:xlink="http://www.w3.org/1999/xlink" xmlns:ev="http://www.w3.org/2001/xml-events"
		width="0.944882in" height="1.29528in" viewBox="0 0 68.0315 93.2598" xml:space="preserve" color-interpolation-filters="sRGB"
		class="st2">
	<style type="text/css">
	<![CDATA[
		.st1 {fill:#21bef2;stroke:none;stroke-linecap:butt;stroke-width:0.75}
		.st2 {fill:none;fill-rule:evenodd;font-size:12px;overflow:visible;stroke-linecap:square;stroke-miterlimit:3}
	]]>
	</style>

	<g>
		<title>Page-1</title>
		<g id="group1459-1" transform="translate(5.66929,-34.0157)">
			<title>Snowflake</title>
			<g id="shape1460-2">
				<title>Sheet.1460</title>
				<path d="M8.99 66.33 L2.09 62.31 C0.51 61.4 0 59.42 0.94 57.89 C1.89 56.36 3.93 55.86 5.51 56.78 L17.17 63.56 C19.33
							 64.82 19.33 67.85 17.17 69.1 L5.51 75.88 C3.93 76.8 1.89 76.3 0.94 74.78 C0 73.25 0.51 71.26 2.09 70.35
							 L8.99 66.33 ZM47.7 66.33 L54.61 70.35 C56.18 71.26 56.69 73.25 55.75 74.78 C54.8 76.3 52.76 76.8 51.18
							 75.88 L39.52 69.1 C37.37 67.85 37.37 64.82 39.52 63.56 L51.18 56.78 C52.76 55.86 54.8 56.36 55.75 57.89
							 C56.69 59.42 56.18 61.4 54.61 62.31 L47.7 66.33 ZM37.82 50.39 L44.87 46.62 C46.48 45.75 48.51 46.32
							 49.41 47.87 C50.31 49.43 49.73 51.39 48.12 52.25 L36.21 58.63 C34.01 59.81 31.3 58.29 31.25 55.86 L31.01
							 42.7 C30.98 40.92 32.44 39.46 34.29 39.43 C36.13 39.4 37.65 40.82 37.68 42.6 L37.82 50.39 ZM18.87 50.39
							 L19.01 42.6 C19.05 40.82 20.56 39.4 22.41 39.43 C24.25 39.46 25.71 40.92 25.68 42.7 L25.44 55.86 C25.39
							 58.29 22.68 59.81 20.48 58.63 L8.57 52.25 C6.96 51.39 6.39 49.43 7.28 47.87 C8.18 46.32 10.21 45.75
							 11.82 46.62 L18.87 50.39 ZM37.82 82.27 L37.68 90.06 C37.65 91.84 36.13 93.26 34.29 93.23 C32.44 93.21
							 30.98 91.74 31.01 89.97 L31.25 76.8 C31.3 74.37 34.01 72.86 36.21 74.03 L48.12 80.41 C49.73 81.27 50.31
							 83.23 49.41 84.79 C48.51 86.34 46.48 86.91 44.87 86.05 L37.82 82.27 ZM18.87 82.27 L11.82 86.05 C10.21
							 86.91 8.18 86.34 7.28 84.79 C6.39 83.23 6.96 81.27 8.57 80.41 L20.48 74.03 C22.68 72.86 25.39 74.37
							 25.44 76.8 L25.68 89.97 C25.71 91.74 24.25 93.21 22.41 93.23 C20.56 93.26 19.05 91.84 19.01 90.06 L18.87
							 82.27 ZM21.97 65.42 L27.57 60.17 L30.18 60.17 L35.51 65.42 L35.51 68.02 L30.18 73.26 L27.57 73.26 L21.97
							 68.02 L21.97 65.42 ZM26.52 66.17 C26.21 66.47 26.21 66.96 26.52 67.26 L28.18 68.87 C28.49 69.17 29 69.17
							 29.31 68.87 L30.97 67.26 C31.28 66.96 31.28 66.47 30.97 66.17 L29.31 64.56 C29 64.26 28.49 64.26 28.18
							 64.56 L26.52 66.17 Z" class="st1"/>
			</g>
		</g>
	</g>
</svg>
